img/search.svg

<svg width="18" height="18" fill="none" xmlns="http://www.w3.org/2000/svg"><path fill-rule="evenodd" clip-rule="evenodd" d="M12.5 11h-.8l-.3-.3c1-1.1 1.6-2.6 1.6-4.2C13 2.9 10.1 0 6.5 0S0 2.9 0 6.5 2.9 13 6.5 13c1.6 0 3.1-.6 4.2-1.6l.3.3v.8l5 5 1.5-1.5-5-5Zm-6 0C4 11 2 9 2 6.5S4 2 6.5 2 11 4 11 6.5 9 11 6.5 11Z" fill="#848484"/></svg>

<svg width="18" height="18" viewBox="0 0 18 18" fill="none" xmlns="http://www.w3.org/2000/svg">
<g id="search">
<path id="icon-search-black" fill-rule="evenodd" clip-rule="evenodd" d="M12.5 11H11.7L11.4 10.7C12.4 9.6 13 8.1 13 6.5C13 2.9 10.1 0 6.5 0C2.9 0 0 2.9 0 6.5C0 10.1 2.9 13 6.5 13C8.1 13 9.6 12.4 10.7 11.4L11 11.7V12.5L16 17.5L17.5 16L12.5 11ZM6.5 11C4 11 2 9 2 6.5C2 4 4 2 6.5 2C9 2 11 4 11 6.5C11 9 9 11 6.5 11Z" fill="#848484"/>
</g>
</svg>
